!!!OTL: "Prinz Eugen vor Ryssel" LILGE DU ALLERSCHOENSTE STADT
!!!ARE: Europa, Mitteleuropa, Deutschland
!!!SCT: Z1142
!!!YEM: Copyright 1995, estate of Helmut Schaffrath.
**kern
*ICvox
*Ivox
*M4/4
*k[f#]
*G:
=1
{4g
8.d
16d
4B
4d
=2
4g
4g
4g
4r}
=3
{4b
4b
4a
4b
=4
4cc
4b
4a
4r}
=5
{4a
4a
4dd
4dd
=6
8a
8g
8f#
8e
4f#
4d}
=7
{4a
4a
4dd
4dd
=8
8a
8g
8f#
8e
4f#
4d}
=9
{4g
4g
4a
4a
=10
4b
4b
4a
4r
=11
4b
4b
4a
4r}
=12
{4.dd
8cc
4b
4b
=13
4a
4a
4g
4r}
==
!!!AGN: Vaterland und Wehr
!!!ONB: ESAC (Essen Associative Code) Database: ZUCCAL
!!!AMT: simple quadruple
!!!AIN: vox
!!!EED: Helmut Schaffrath
!!!EEV: 1.0
*-
